Papirus-nordic/24x24/places/folder-nordic-torrent.svg

<svg xmlns="http://www.w3.org/2000/svg" width="24" height="24" version="1">
 <rect style="opacity:0.2" width="20" height="12" x="2" y="9.5" rx="1" ry="1"/>
 <path style="fill:#6c9b9a" d="M 2,17 C 2,17.554 2.446,18 3,18 H 21 C 21.554,18 22,17.554 22,17 V 6 C 22,5.446 21.554,5 21,5 H 11 V 4 C 11,3.446 10.554,3 10,3 H 3 C 2.446,3 2,3.446 2,4"/>
 <rect style="opacity:0.2" width="20" height="12" x="2" y="8.5" rx="1" ry="1"/>
 <rect style="fill:#e4e4e4" width="16" height="8" x="4" y="7" rx="1" ry="1"/>
 <rect style="fill:#82abaa" width="20" height="12" x="2" y="9" rx="1" ry="1"/>
 <path style="opacity:0.1;fill:#ffffff" d="M 3,3 C 2.446,3 2,3.446 2,4 V 4.5 C 2,3.946 2.446,3.5 3,3.5 H 10 C 10.554,3.5 11,3.946 11,4.5 V 4 C 11,3.446 10.554,3 10,3 Z M 11,5 V 5.5 H 21 C 21.554,5.5 22,5.946 22,6.5 V 6 C 22,5.446 21.554,5 21,5 Z"/>
 <path style="fill:#4e6766" d="M 12.5 11 C 10.567003 11 9 12.567003 9 14.5 C 9 16.432997 10.567003 18 12.5 18 L 22 18 L 22 17 L 12.5 17 C 11.119288 17 10 15.880712 10 14.5 C 10 13.119288 11.119288 12 12.5 12 C 12.844234 12.000394 13.184677 12.070893 13.5 12.208984 L 13.5 11.148438 C 13.175656 11.050498 12.838808 11.001141 12.5 11 z M 12.5 13 C 11.671573 13 11 13.671573 11 14.5 C 11 15.328427 11.671573 16 12.5 16 L 22 16 L 22 15 L 15.5 15 L 13.912109 15 L 12.5 15 C 12.223858 15 12 14.776142 12 14.5 C 12 14.223858 12.223858 14 12.5 14 L 13.908203 14 C 13.701611 13.418655 13.152215 13 12.5 13 z"/>
</svg>

<svg xmlns="http://www.w3.org/2000/svg" width="24" height="24" version="1"><rect width="20" height="12" x="2" y="9.5" rx="1" ry="1" opacity=".2"/><path d="M2 17c0 .554.446 1 1 1h18c.554 0 1-.446 1-1V6c0-.554-.446-1-1-1H11V4c0-.554-.446-1-1-1H3c-.554 0-1 .446-1 1" fill="#6c9b9a"/><rect width="20" height="12" x="2" y="8.5" rx="1" ry="1" opacity=".2"/><rect width="16" height="8" x="4" y="7" rx="1" ry="1" fill="#e4e4e4"/><rect width="20" height="12" x="2" y="9" rx="1" ry="1" fill="#82abaa"/><path d="M3 3c-.554 0-1 .446-1 1v.5c0-.554.446-1 1-1h7c.554 0 1 .446 1 1V4c0-.554-.446-1-1-1zm8 2v.5h10c.554 0 1 .446 1 1V6c0-.554-.446-1-1-1z" opacity=".1" fill="#fff"/><path d="M12.5 11a3.5 3.5 0 1 0 0 7H22v-1h-9.5a2.5 2.5 0 1 1 1-4.791v-1.06a3.5 3.5 0 0 0-1-.149zm0 2a1.5 1.5 0 0 0 0 3H22v-1h-9.5a.5.5 0 0 1 0-1h1.408c-.206-.581-.756-1-1.408-1z" fill="#4e6766"/></svg>
